X:1
T:Dors mon p'tit Quinquin
C:Desrousseaux, 1855. Berceuse lilloise, fichier abc : Bernard Loffet
L:1/8
Q:200
M:4/4
K:C
 [cC,,]G [GC,]G [cC,,]G [GC,]G | [cC,,]G [GC,]F [E2C,,2] C,2 | [CC,,]D [EC,]F [G2C,,2] [G2C,2] | \
 [AF,,]A [BG,]B [c2C,,2] C,2 | [cF,,]d [cF,]A [G2C,,2] [G2C,2] | [G2G,,2] G,F [E2C,,2] [EC,]z | \
 [EC,,]G [FG,]E [D2G,,2] [D2G,2] | [D2G,,2] G,C [C2C,,2] C,2 | [c2F,,2] [cF,]A [G2C,,2] [G2C,2] | \
 [G2G,,2] G,F [E2C,,2] [EC,]z | [EC,,]^F [GC,]A [B2G,,2] [B2G,2] | [B2D,,2] D,A [G2G,,2] G,2 | \
 [cC,,]E [EC,]E [AF,,]G [GF,]G/z/ | [cC,,]E [EC,]E [GG,,]F [FG,]F/z/ | [EC,,]G [FG,]E [DD,,]^C [DD,]E | \
 [FD,,]E [FD,]^F [G2G,,2] G,2 | \
W:Created with TablEdit http://www.tabledit.com/ by Bernard Loffet
